Numix-GalliumOS/22/categories/preferences-composer.svg

<?xml version="1.0" encoding="UTF-8" standalone="no"?>
<svg
   xmlns:dc="http://purl.org/dc/elements/1.1/"
   xmlns:cc="http://creativecommons.org/ns#"
   xmlns:rdf="http://www.w3.org/1999/02/22-rdf-syntax-ns#"
   xmlns:svg="http://www.w3.org/2000/svg"
   xmlns="http://www.w3.org/2000/svg"
   xmlns:sodipodi="http://sodipodi.sourceforge.net/DTD/sodipodi-0.dtd"
   xmlns:inkscape="http://www.inkscape.org/namespaces/inkscape"
   width="22"
   height="22"
   viewBox="0 0 22 22"
   id="svg2"
   version="1.1"
   inkscape:version="0.91 r"
   sodipodi:docname="preferences-composer.svg">
  <metadata
     id="metadata10">
    <rdf:RDF>
      <cc:Work
         rdf:about="">
        <dc:format>image/svg+xml</dc:format>
        <dc:type
           rdf:resource="http://purl.org/dc/dcmitype/StillImage" />
        <dc:title />
      </cc:Work>
    </rdf:RDF>
  </metadata>
  <defs
     id="defs8" />
  <sodipodi:namedview
     pagecolor="#ffffff"
     bordercolor="#666666"
     borderopacity="1"
     objecttolerance="10"
     gridtolerance="10"
     guidetolerance="10"
     inkscape:pageopacity="0"
     inkscape:pageshadow="2"
     inkscape:window-width="1920"
     inkscape:window-height="1056"
     id="namedview6"
     showgrid="true"
     inkscape:zoom="21.454545"
     inkscape:cx="-6.6054348"
     inkscape:cy="9.9515435"
     inkscape:window-x="0"
     inkscape:window-y="24"
     inkscape:window-maximized="1"
     inkscape:current-layer="svg2">
    <inkscape:grid
       type="xygrid"
       id="grid4138" />
  </sodipodi:namedview>
  <path
     style="fill:#9ddee4;fill-opacity:1"
     d="M 6.9643694,4 C 6.9643694,4 6,4 6,4.9346593 L 6,17.065341 C 6,18 6.9101474,18 6.9101474,18 l 8.1797056,0 C 16,18 16,17.065341 16,17.065341 L 16,5.8653407 14.179705,4 6.9101474,4 Z M 7,5 l 5,0 0,3 3,0 0,9 -8,0 z"
     id="path4"
     inkscape:connector-curvature="0"
     sodipodi:nodetypes="csscscccccccccccc" />
  <path
     style="fill:#9ddee4;fill-opacity:1;fill-rule:evenodd;stroke:none;stroke-width:1px;stroke-linecap:butt;stroke-linejoin:miter;stroke-opacity:1"
     d="M 19.162204,5.0699986 20.93,6.8377956 13.151695,14.616102 10.5,15.5 11.383898,12.848305 Z"
     id="path4168"
     inkscape:connector-curvature="0"
     sodipodi:nodetypes="cccccc" />
</svg>

<svg xmlns="http://www.w3.org/2000/svg" viewBox="0 0 22 22">
 <path d="m 6.964 4 c 0 0 -0.964 0 -0.964 0.935 l 0 12.13 c 0 0.935 0.91 0.935 0.91 0.935 l 8.18 0 c 0.91 0 0.91 -0.935 0.91 -0.935 l 0 -11.2 -1.82 -1.865 -7.27 0 m 0.09 1 l 5 0 0 3 3 0 0 9 -8 0 z" style="fill:#9ddee4;fill-opacity:1"/>
 <path d="m 19.16 5.07 1.768 1.768 -7.778 7.778 -2.652 0.884 0.884 -2.652" style="fill:#9ddee4;fill-opacity:1;stroke:none;fill-rule:evenodd"/>
</svg>
